X:1
T:Title
%%score 1 { 2 | 3 }
L:1/8
Q:1/4=97
M:3/4
K:C
V:1 treble nm="Grand Piano, Soprano"
V:2 bass nm="Choir Pad, Tunguska, 87.87 D"
V:3 bass 
V:1
 [EG][EG] [Ec]3 [Ec] | [_EB][EA] [=EG]2 [CE]2 | [EG][EG] [DG]3 [DA] | [DG][D^F] [DG]4 | %4
w: By~William~Thomas~Giffe,~1900 * * *||||
 [EG][EG] [FA]3 [F^G] | [FA][F^G] [FA]2 [E=G]2 | [EG][Ec] [FB]3 [FB] | [FA][FB] [Ec]4 | %8
w: ||||
 [Ec][Gc] [Fd]3 [FG] | [FA][FG] [EG] [Ec]3 | [Ec][Ec] [Fd]3 [Ec] | [FB][^FA] [GB]4 | %12
w: ||||
 GG [Ge]3 [Fd] | [Ec][EG] [FB]2 [FA]2 | [FA]>[FA] [EG]3 [Ec] | [Fd]>[FB] [Ec]4- | [Ec]4 z2 |] %17
w: |||||
V:2
 CC G,3 G, | A,[K:treble]C C2 G,2 | CC[K:bass] B,3 C | B,A, B,4 | CC C3 B, | CB, C2 C2 | %6
 G,G, G,3 G, | G,G, G,4 | G,C B,3 B, | B,B, C G,3 | G,G, G,3 G, | G,A, G,4 | B,B, C3 G, | %13
 G,[K:treble]C C2 C2 | C>C C3[K:bass] C | B,>G, G,4- | G,4 z2 |] %17
V:3
 C,C, C,3 C, | C,C, C,2 C,2 | C,C, D,3 D, | D,D, [G,,G,]4 | C,C, F,3 F, | F,F, C,2 C,2 | %6
 C,C, z2 z2 | z2 C,4 | C,E, G,3 G, | G,G, C, C,3 | C,C, B,,3 C, | D,D, z2 z2 | G,G, C,3 C, | %13
 C,C, F,2 F,2 | F,>F, G,3 G, | [G,,G,]>G,, C,4- | C,4 z2 |] %17

